svg/color/lith.svg

<?xml version="1.0" encoding="UTF-8" ?>
<!DOCTYPE svg PUBLIC "-//W3C//DTD SVG 1.1//EN" "http://www.w3.org/Graphics/SVG/1.1/DTD/svg11.dtd">
<svg width="250pt" height="250pt" viewBox="0 0 250 250" version="1.1" xmlns="http://www.w3.org/2000/svg">
<g id="#ffffffff">
<path fill="#ffffff" opacity="1.00" d=" M 0.00 0.00 L 44.53 0.00 C 32.40 1.73 20.78 7.47 12.72 16.80 C 5.63 24.47 1.80 34.52 0.00 44.67 L 0.00 0.00 Z" />
<path fill="#ffffff" opacity="1.00" d=" M 55.41 0.00 L 194.53 0.00 C 180.00 1.89 166.14 9.75 158.14 22.17 C 149.64 34.35 147.55 50.38 151.71 64.54 C 155.91 77.97 165.86 89.43 178.57 95.47 C 187.25 99.99 197.36 100.33 206.91 99.55 C 223.30 97.16 238.21 86.16 245.01 71.01 C 250.59 59.61 250.96 46.10 246.97 34.14 C 241.31 15.62 223.57 1.88 204.44 0.00 L 250.00 0.00 L 250.00 250.00 L 207.82 250.00 C 212.95 248.00 218.35 246.70 223.22 244.08 C 234.95 237.79 244.02 226.66 247.65 213.84 C 251.86 200.52 249.44 185.64 242.29 173.79 C 234.63 161.36 221.46 152.36 206.93 150.38 C 194.68 148.38 181.82 151.57 171.58 158.50 C 159.76 166.49 151.65 179.74 150.03 193.93 C 147.54 212.56 156.82 232.14 172.73 242.12 C 178.49 246.06 185.33 247.77 191.84 250.00 L 54.44 250.00 C 67.85 248.54 80.72 241.84 89.11 231.20 C 95.84 222.64 100.09 211.87 99.85 200.90 C 100.67 184.33 91.99 167.83 78.30 158.60 C 67.90 151.32 54.61 148.35 42.10 150.47 C 28.94 152.55 16.73 160.17 9.18 171.17 C 4.16 178.04 1.65 186.35 0.00 194.61 L 0.00 55.27 C 2.13 68.78 8.85 81.82 20.03 89.98 C 33.43 100.38 52.33 102.78 68.06 96.72 C 86.91 89.69 100.53 70.21 99.86 49.99 C 100.27 38.26 95.72 26.65 88.27 17.67 C 80.12 7.82 68.01 1.67 55.41 0.00 Z" />
<path fill="#ffffff" opacity="1.00" d=" M 0.00 206.15 C 1.93 214.09 4.32 222.13 9.25 228.77 C 17.51 240.72 31.16 248.39 45.52 250.00 L 0.00 250.00 L 0.00 206.15 Z" />
</g>
<g id="#000000ff">
<path fill="#000000" opacity="1.00" d=" M 44.53 0.00 L 55.41 0.00 C 68.01 1.67 80.12 7.82 88.27 17.67 C 95.72 26.65 100.27 38.26 99.86 49.99 C 100.53 70.21 86.91 89.69 68.06 96.72 C 52.33 102.78 33.43 100.38 20.03 89.98 C 8.85 81.82 2.13 68.78 0.00 55.27 L 0.00 44.67 C 1.80 34.52 5.63 24.47 12.72 16.80 C 20.78 7.47 32.40 1.73 44.53 0.00 Z" />
<path fill="#000000" opacity="1.00" d=" M 9.18 171.17 C 16.73 160.17 28.94 152.55 42.10 150.47 C 54.61 148.35 67.90 151.32 78.30 158.60 C 91.99 167.83 100.67 184.33 99.85 200.90 C 100.09 211.87 95.84 222.64 89.11 231.20 C 80.72 241.84 67.85 248.54 54.44 250.00 L 45.52 250.00 C 31.16 248.39 17.51 240.72 9.25 228.77 C 4.32 222.13 1.93 214.09 0.00 206.15 L 0.00 194.61 C 1.65 186.35 4.16 178.04 9.18 171.17 Z" />
<path fill="#000000" opacity="1.00" d=" M 171.58 158.50 C 181.82 151.57 194.68 148.38 206.93 150.38 C 221.46 152.36 234.63 161.36 242.29 173.79 C 249.44 185.64 251.86 200.52 247.65 213.84 C 244.02 226.66 234.95 237.79 223.22 244.08 C 218.35 246.70 212.95 248.00 207.82 250.00 L 191.84 250.00 C 185.33 247.77 178.49 246.06 172.73 242.12 C 156.82 232.14 147.54 212.56 150.03 193.93 C 151.65 179.74 159.76 166.49 171.58 158.50 Z" />
</g>
<g id="#e96036ff">
<path fill="#e96036" opacity="1.00" d=" M 194.53 0.00 L 204.44 0.00 C 223.57 1.88 241.31 15.62 246.97 34.14 C 250.96 46.10 250.59 59.61 245.01 71.01 C 238.21 86.16 223.30 97.16 206.91 99.55 C 197.36 100.33 187.25 99.99 178.57 95.47 C 165.86 89.43 155.91 77.97 151.71 64.54 C 147.55 50.38 149.64 34.35 158.14 22.17 C 166.14 9.75 180.00 1.89 194.53 0.00 Z" />
</g>
</svg>

<?xml version="1.0" encoding="utf-8"?>
<!-- Generator: Adobe Illustrator 26.0.3, SVG Export Plug-In . SVG Version: 6.00 Build 0)  -->
<svg version="1.1" id="Layer_1" xmlns="http://www.w3.org/2000/svg" xmlns:xlink="http://www.w3.org/1999/xlink" x="0px" y="0px"
	 viewBox="0 0 250 250" style="enable-background:new 0 0 250 250;" xml:space="preserve">
<style type="text/css">
	.st0{fill:#FFFFFF;}
	.st1{fill:#E96036;}
</style>
<g id="_x23_ffffffff">
	<path class="st0" d="M0,0h44.5C32.4,1.7,20.8,7.5,12.7,16.8C5.6,24.5,1.8,34.5,0,44.7V0z"/>
	<path class="st0" d="M0,206.1c1.9,7.9,4.3,16,9.2,22.6c8.3,11.9,21.9,19.6,36.3,21.2H0V206.1z"/>
</g>
<g id="_x23_000000ff">
	<path d="M44.5,0h10.9C68,1.7,80.1,7.8,88.3,17.7c7.5,9,12,20.6,11.6,32.3c0.7,20.2-12.9,39.7-31.8,46.7c-15.7,6.1-34.6,3.7-48-6.7
		C8.9,81.8,2.1,68.8,0,55.3V44.7c1.8-10.1,5.6-20.2,12.7-27.9C20.8,7.5,32.4,1.7,44.5,0z"/>
	<path d="M9.2,171.2c7.5-11,19.8-18.6,32.9-20.7c12.5-2.1,25.8,0.9,36.2,8.1c13.7,9.2,22.4,25.7,21.5,42.3c0.2,11-4,21.7-10.7,30.3
		c-8.4,10.6-21.3,17.3-34.7,18.8h-8.9c-14.4-1.6-28-9.3-36.3-21.2c-4.9-6.6-7.3-14.7-9.2-22.6v-11.5C1.6,186.4,4.2,178,9.2,171.2z"
		/>
	<path d="M171.6,158.5c10.2-6.9,23.1-10.1,35.3-8.1c14.5,2,27.7,11,35.4,23.4c7.2,11.9,9.6,26.7,5.4,40.1
		c-3.6,12.8-12.7,23.9-24.4,30.2c-4.9,2.6-10.3,3.9-15.4,5.9h-16c-6.5-2.2-13.3-3.9-19.1-7.9c-15.9-10-25.2-29.6-22.7-48.2
		C151.6,179.7,159.8,166.5,171.6,158.5z"/>
</g>
<g id="_x23_e96036ff">
	<path class="st1" d="M194.5,0h9.9c19.1,1.9,36.9,15.6,42.5,34.1c4,12,3.6,25.5-2,36.9c-6.8,15.2-21.7,26.2-38.1,28.5
		c-9.6,0.8-19.7,0.4-28.3-4.1c-12.7-6-22.7-17.5-26.9-30.9c-4.2-14.2-2.1-30.2,6.4-42.4C166.1,9.8,180,1.9,194.5,0z"/>
</g>
</svg>
